X: 1
T: Hetty & Farquhar's Waltz
T: Farquhar & Hetty's Waltz
%D:1954
C: Farquhar MacRae (1925 -2000)
R: waltz
S: Concord Slow Scottish collection
S: Accordion & fiddle player, Moidart. c.1954
S: Setting by Aonghas Grant
S: Concord Slow Scottish collection
Z: 2017 John Chambers <jc:trillian.mit.edu>
M: 3/4
L: 1/8
K: D
a3 g |\
"D"f2 a3 f | d3 f ed | "G"B2 d3 B | "A7"A3 B AG |\
"D"F2 A2 d2 | "Bm"f2 a3 f | "G"e6- | "A7"e2 a3 g |
"D"f2 a3 f | d3 f ed | "G"B2 d3 B | "A7"A3 B AG |\
"D"F2 A2 df | "A7"e2 B2 c2 | "D"d6- | d2 |]
A3 G |\
"D"F2 A2 d2 | f4 e>f | "G"e d3 B2 | "A7"A3 B AG |\
"D"F2 A2 d2 | f2 a3 f | "G"e6- | "A7"e2 a3 b |
"D"a2 f3 e | "D7/C"f4 ef | "G/B"e d3 B | "D/A"A3 B AG |\
"D"F2 A2 df | "A7"e2 B2 c2 | "D"d6- | d2 |]
